X: 2
T: The Concertina
R: reel
M: 4/4
L: 1/8
K: Dmaj
|:A2FA BAFA|A2FA BAFA|B2cA B2cA|B2cA BAFA|
A2FA BAFA|A2FA BAFA|A2 Bc d3B|AFEF D4:||
|:Adcd Adcd|Adcd BAFA|B2cA B2cA|B2cA BAFA|
Adcd Adcd|AddA BAFA|A2 Bc d3B|AFEF D4:||


Tune 18	Setting 12389

